assets/svg/icon_field_email.svg

<svg width="24" height="24" viewBox="0 0 24 24" fill="none" xmlns="http://www.w3.org/2000/svg">
<path fill-rule="evenodd" clip-rule="evenodd" d="M5.21585 6.57722C4.64765 7.08323 4.26712 7.90427 4.26712 9.19221V14.8022C4.26712 16.0901 4.64765 16.9112 5.21585 17.4172C5.79244 17.9307 6.66118 18.2083 7.81856 18.2083H16.1749C17.3322 18.2083 18.201 17.9307 18.7776 17.4172C19.3458 16.9112 19.7263 16.0901 19.7263 14.8022V9.19221C19.7263 7.90427 19.3458 7.08323 18.7776 6.57722C18.201 6.06372 17.3322 5.78613 16.1749 5.78613H7.81856C6.66118 5.78613 5.79244 6.06372 5.21585 6.57722ZM4.36293 5.69629C5.2487 4.90747 6.46904 4.58398 7.81856 4.58398H16.1749C17.5244 4.58398 18.7448 4.90747 19.6305 5.69629C20.5247 6.49261 20.9798 7.67514 20.9798 9.19221V14.8022C20.9798 16.3193 20.5247 17.5019 19.6305 18.2982C18.7448 19.087 17.5244 19.4105 16.1749 19.4105H7.81856C6.46904 19.4105 5.2487 19.087 4.36293 18.2982C3.46877 17.5019 3.01367 16.3193 3.01367 14.8022V9.19221C3.01367 7.67514 3.46877 6.49261 4.36293 5.69629Z" fill="#494949"/>
<path fill-rule="evenodd" clip-rule="evenodd" d="M18.1456 8.2368C18.3573 8.49948 18.3068 8.87697 18.033 9.07994L13.3976 12.5151C12.57 13.1284 11.4151 13.1284 10.5875 12.5151L5.95217 9.07994C5.67828 8.87697 5.62781 8.49948 5.83945 8.2368C6.05109 7.97411 6.44469 7.92572 6.71858 8.1287L11.3538 11.5638C11.73 11.8426 12.2551 11.8426 12.6312 11.5638L17.2665 8.1287C17.5404 7.92572 17.934 7.97411 18.1456 8.2368Z" fill="#494949"/>
</svg>

<svg xmlns="http://www.w3.org/2000/svg" width="24" height="24" fill="none"><path fill="#494949" fill-rule="evenodd" d="M5.216 6.577c-.568.506-.949 1.327-.949 2.615v5.61c0 1.288.38 2.11.949 2.615.576.514 1.445.791 2.603.791h8.356c1.157 0 2.026-.277 2.603-.79.568-.507.948-1.328.948-2.616v-5.61c0-1.288-.38-2.109-.948-2.615-.577-.513-1.446-.79-2.603-.79H7.819c-1.158 0-2.027.277-2.603.79m-.853-.88c.886-.79 2.106-1.113 3.456-1.113h8.356c1.35 0 2.57.323 3.456 1.112.894.797 1.349 1.98 1.349 3.496v5.61c0 1.517-.455 2.7-1.35 3.496-.885.789-2.106 1.113-3.455 1.113H7.819c-1.35 0-2.57-.324-3.456-1.113-.894-.796-1.35-1.979-1.35-3.496v-5.61c0-1.517.456-2.7 1.35-3.496" clip-rule="evenodd"/><path fill="#494949" fill-rule="evenodd" d="M18.146 8.237a.585.585 0 0 1-.113.843l-4.635 3.435a2.38 2.38 0 0 1-2.81 0L5.952 9.08a.585.585 0 0 1-.113-.843.645.645 0 0 1 .88-.108l4.635 3.435a1.08 1.08 0 0 0 1.277 0l4.636-3.435a.645.645 0 0 1 .879.108" clip-rule="evenodd"/></svg>
